public/avatar/item0/46.svg

<svg xmlns:xlink="http://www.w3.org/1999/xlink" height="58.65" width="49.15" xmlns="http://www.w3.org/2000/svg"><use height="16.9" transform="translate(8.3 20.65)" width="31.4" xlink:href="#a"/><defs><g id="a" fill-rule="evenodd"><path d="M15.6 8.55v.55q0 2.65-2.45 3.7l-.1.3q-.75 3.6-4.4 5.55-4 2.05-8.8-1.2-4.9 3-9.15 1.05-3.45-1.6-4.2-4.9l-.45-1.5q-1.85-1.25-1.85-3.35l.1-.9q.65-2.9 3.6-3.15 1.3-1.15 3-1.35l.75-.1 8.2-.7 9.1.75q2.05.3 3.4 1.8 2.7.6 3.2 3.3l.05.15M11.55 6.5l-.2-.3q-.9-1.15-2.6-1.4l-8.9-.75-8 .7-.75.1q-1.5.15-2.4 1.05l-.2.2-.3.05q-2 .1-2.4 2l-.1.6q0 1.5 1.35 2.25l.35.15.05.35.45 1.55.05.05v.1q.6 2.6 3.4 3.95Q-4.8 18.9-.6 15.9l.45-.3.45.35q4.2 3.15 7.65 1.35 2.95-1.45 3.65-4.5v-.1l.4-1 .35-.15q2-.6 1.75-2.8l-.05-.1q-.25-1.8-2.2-2.15h-.3" fill="#74213f" transform="translate(15.8 -2.55)"/><path d="m-15.05 8.75.1-.75q2.5 1.35 6.55 1.55-.7 2.55-3.25 2.55-1.4 0-2.4-1-1-.95-1-2.35" fill="#a03f9e" transform="translate(15.8 -2.55)"/><path d="M-11.65 5.35q3.35 0 3.35 3.4l-.1.8q-4.05-.2-6.55-1.55.6-2.65 3.3-2.65m22.7.4q3.2-.45 3.75 2.8l-6.65.9q-.25-3.25 2.9-3.7" fill="#bc6fba" transform="translate(15.8 -2.55)"/><path d="m8.15 9.45 6.65-.9.05.1q.2 1.4-.65 2.5-.85 1.1-2.25 1.3-1.4.2-2.5-.65-1.1-.85-1.3-2.25v-.1" fill="#a03f9e" transform="translate(15.8 -2.55)"/><path d="M8.3 18q-3.95 2-8.45-1.45-4.5 3.25-8.8 1.25-3.45-1.6-3.95-4.95l.25-3.05q-.15-.95.2-1.95.75-2 3.45-2.4l8.85-.3 8.85.3q4.35.6 3.65 4.35Q13.7 15.2 8.3 18" fill="#a7346d" transform="translate(15.8 -2.55)"/><path d="M8.3 17.15Q4.35 19.1-.15 15.7q-4.5 3.2-8.8 1.25-3.45-1.55-4.3-4.9l-.1-3q0-1.1.55-2.25 1.1-2.35 3.8-2.7l8.85-.8 9 .75q4.35.55 4.05 5.05.8 5.3-4.6 8.05" fill="#f0abc5" transform="translate(15.8 -2.55)"/><path d="M-4.3 5.6q-2.6 1.7-5.2 7.35l-1.4-1.65q-.8-1.55 0-3.5.8-1.9 6.6-2.2" fill="#5b1414" transform="translate(15.8 -2.55)"/><path d="M6.15 5.75Q7 8.15 2.1 10.6q-4.95 2.45-5.3.75.9-1.25-.85-3.15-1.55-1.75-.25-2.6l4.15-.05 6.3.2" fill="#f24370" transform="translate(15.8 -2.55)"/><path d="M10.85 7.85q1.3 4.15-1.5 6.4-1.45 1.1-3.2 1.45 1.65-5.15 0-9.95 4.25.5 4.7 2.1" fill="#d43d6f" transform="translate(15.8 -2.55)"/><path d="M2.1 15.2Q.25 14.1-.4 14.15q-.45.05-2.7 1.05-1.75.85-3.55.3-2.2-.7-3.2-2.9-.9-2.05-.3-4.4.4-1.45 5.1-1.85l4.65-.1 4.65.1q4.7.4 5.05 1.85.6 2.3-.5 4.5-1.1 2.25-3.35 2.95-1.75.55-3.35-.45" fill="#fee4e1" transform="translate(15.8 -2.55)"/><path d="M-1.9 6.6q-2.75 4.15-3.95 8.55l-.2-.05q-2.05-.65-3-2.65-.9-1.9-.3-4 .5-1.85 7.45-1.85" fill="#ffecea" transform="translate(15.8 -2.55)"/><path d="M-3.6 15.15q-1.05.35-2.25 0 1.2-4.4 3.95-8.55h3.75q-3.3 4.45-5.45 8.55" fill="#fff5f4" transform="translate(15.8 -2.55)"/><path d="m1.85 6.6 4.7.45q-7 4.4-9.75 8l-.4.1q2.15-4.1 5.45-8.55" fill="#fea2a8" transform="translate(15.8 -2.55)"/><path d="m6.55 7.05.9.2Q6.35 13 4 15.45q-.95-.05-2.2-.85-1.25-.8-1.95-.75l-3.05 1.2q2.55-3.4 9.75-8" fill="#fdc3c7" transform="translate(15.8 -2.55)"/><path d="M9.05 8.45q.55 2.05-.45 4.1-1.1 2.05-3.2 2.7l-1.4.2Q6.35 13 7.45 7.25q1.4.5 1.6 1.2" fill="#fea2a8" transform="translate(15.8 -2.55)"/><path d="M-9.55 7.5q1.35-.9 7.4-1.05v1l-5.5.5-1.35.4-.55-.85" fill="#fff" transform="translate(15.8 -2.55)"/><path d="m-9.5 15.4.6-.75q2.55 2 4.55 1.05l.25.45q-2.55 1.25-5.4-.75m-1.8-9.5 1.9-.9q2.25-.85 4.5-.9l.05 1q-2.15.05-4.4.7l-1.9.6-.15-.5m15.4 10q2.4.2 4-.9l.55.85q-1.85 1.25-4.5.65l-.05-.6" fill="#f6cddd" transform="translate(15.8 -2.55)"/><path d="M-2.85 9.45q0 1.65-1.65 1.65t-1.65-1.65q0-1.65 1.65-1.65t1.65 1.65m-1.7 3.15q0 .95-.95.95t-.95-.95q0-.9.95-.9t.95.9m5.6-5.35.4.4-3.35 3.95-.75-.65 3.7-3.7" fill="#fff" transform="translate(15.8 -2.55)"/><path d="m-6 12.4 5.2-5.8.75.65-5.2 5.85-.75-.7" fill="#fff" transform="translate(15.8 -2.55)"/></g></defs></svg>

<?xml version="1.0" encoding="UTF-8" standalone="no"?>
<svg xmlns:xlink="http://www.w3.org/1999/xlink" height="58.65px" width="49.15px" xmlns="http://www.w3.org/2000/svg">
  <g transform="matrix(1.0, 0.0, 0.0, 1.0, 24.1, 18.1)">
    <use height="16.9" transform="matrix(1.0, 0.0, 0.0, 1.0, -15.8, 2.55)" width="31.4" xlink:href="#shape0"/>
  </g>
  <defs>
    <g id="shape0" transform="matrix(1.0, 0.0, 0.0, 1.0, 15.8, -2.55)">
      <path d="M15.6 8.55 L15.6 9.1 Q15.6 11.75 13.15 12.8 L13.05 13.1 Q12.3 16.7 8.65 18.65 4.65 20.7 -0.15 17.45 -5.05 20.45 -9.3 18.5 -12.75 16.9 -13.5 13.6 L-13.95 12.1 Q-15.8 10.85 -15.8 8.75 L-15.7 7.85 Q-15.05 4.95 -12.1 4.7 -10.8 3.55 -9.1 3.35 L-8.35 3.25 -0.15 2.55 8.95 3.3 Q11.0 3.6 12.35 5.1 15.05 5.7 15.55 8.4 L15.6 8.55 M11.55 6.5 L11.35 6.2 Q10.45 5.05 8.75 4.8 L-0.15 4.05 -8.15 4.75 -8.9 4.85 Q-10.4 5.0 -11.3 5.9 L-11.5 6.1 -11.8 6.15 Q-13.8 6.25 -14.2 8.15 L-14.3 8.75 Q-14.3 10.25 -12.95 11.0 L-12.6 11.15 -12.55 11.5 -12.1 13.05 -12.05 13.1 -12.05 13.2 Q-11.45 15.8 -8.65 17.15 -4.8 18.9 -0.6 15.9 L-0.15 15.6 0.3 15.95 Q4.5 19.1 7.95 17.3 10.9 15.85 11.6 12.8 L11.6 12.7 12.0 11.7 12.35 11.55 Q14.35 10.95 14.1 8.75 L14.05 8.65 Q13.8 6.85 11.85 6.5 L11.55 6.5" fill="#74213f" fill-rule="evenodd" stroke="none"/>
      <path d="M-15.05 8.75 L-14.95 8.0 Q-12.45 9.35 -8.4 9.55 -9.1 12.1 -11.65 12.1 -13.05 12.1 -14.05 11.1 -15.05 10.15 -15.05 8.75" fill="#a03f9e" fill-rule="evenodd" stroke="none"/>
      <path d="M-11.65 5.35 Q-8.3 5.35 -8.3 8.75 L-8.4 9.55 Q-12.45 9.35 -14.95 8.0 -14.35 5.35 -11.65 5.35" fill="#bc6fba" fill-rule="evenodd" stroke="none"/>
      <path d="M11.05 5.75 Q14.25 5.3 14.8 8.55 L8.15 9.45 Q7.9 6.2 11.05 5.75" fill="#bc6fba" fill-rule="evenodd" stroke="none"/>
      <path d="M8.15 9.45 L14.8 8.55 14.85 8.65 Q15.05 10.05 14.2 11.15 13.35 12.25 11.95 12.45 10.55 12.65 9.45 11.8 8.35 10.95 8.15 9.55 L8.15 9.45" fill="#a03f9e" fill-rule="evenodd" stroke="none"/>
      <path d="M8.3 18.0 Q4.35 20.0 -0.15 16.55 -4.65 19.8 -8.95 17.8 -12.4 16.2 -12.9 12.85 L-12.65 9.8 Q-12.8 8.85 -12.45 7.85 -11.7 5.85 -9.0 5.45 L-0.15 5.15 8.7 5.45 Q13.05 6.05 12.35 9.8 13.7 15.2 8.3 18.0" fill="#a7346d" fill-rule="evenodd" stroke="none"/>
      <path d="M8.3 17.15 Q4.35 19.1 -0.15 15.7 -4.65 18.9 -8.95 16.95 -12.4 15.4 -13.25 12.05 L-13.35 9.05 Q-13.35 7.95 -12.8 6.8 -11.7 4.45 -9.0 4.1 L-0.15 3.3 8.85 4.05 Q13.2 4.6 12.9 9.1 13.7 14.4 8.3 17.15" fill="#f0abc5" fill-rule="evenodd" stroke="none"/>
      <path d="M-4.3 5.6 Q-6.9 7.3 -9.5 12.95 L-10.9 11.3 Q-11.7 9.75 -10.9 7.8 -10.1 5.9 -4.3 5.6" fill="#5b1414" fill-rule="evenodd" stroke="none"/>
      <path d="M6.15 5.75 Q7.0 8.15 2.1 10.6 -2.85 13.05 -3.2 11.35 -2.3 10.1 -4.05 8.2 -5.6 6.45 -4.3 5.6 L-0.15 5.55 6.15 5.75" fill="#f24370" fill-rule="evenodd" stroke="none"/>
      <path d="M10.85 7.85 Q12.15 12.0 9.35 14.25 7.9 15.35 6.15 15.7 7.8 10.55 6.15 5.75 10.4 6.25 10.85 7.85" fill="#d43d6f" fill-rule="evenodd" stroke="none"/>
      <path d="M2.1 15.2 Q0.25 14.1 -0.4 14.15 -0.85 14.2 -3.1 15.2 -4.85 16.05 -6.65 15.5 -8.85 14.8 -9.85 12.6 -10.75 10.55 -10.15 8.2 -9.75 6.75 -5.05 6.35 L-0.4 6.25 4.25 6.35 Q8.95 6.75 9.3 8.2 9.9 10.5 8.8 12.7 7.7 14.95 5.45 15.65 3.7 16.2 2.1 15.2" fill="#fee4e1" fill-rule="evenodd" stroke="none"/>
      <path d="M-1.9 6.6 Q-4.65 10.75 -5.85 15.15 L-6.05 15.1 Q-8.1 14.45 -9.05 12.45 -9.95 10.55 -9.35 8.45 -8.85 6.6 -1.9 6.6" fill="#ffecea" fill-rule="evenodd" stroke="none"/>
      <path d="M-3.6 15.15 Q-4.65 15.5 -5.85 15.15 -4.65 10.75 -1.9 6.6 L1.85 6.6 Q-1.45 11.05 -3.6 15.15" fill="#fff5f4" fill-rule="evenodd" stroke="none"/>
      <path d="M1.85 6.6 L6.55 7.05 Q-0.45 11.45 -3.2 15.05 L-3.6 15.15 Q-1.45 11.05 1.85 6.6" fill="#fea2a8" fill-rule="evenodd" stroke="none"/>
      <path d="M6.55 7.05 L7.45 7.25 Q6.35 13.0 4.0 15.45 3.05 15.4 1.8 14.6 0.55 13.8 -0.15 13.85 L-3.2 15.05 Q-0.65 11.65 6.55 7.05" fill="#fdc3c7" fill-rule="evenodd" stroke="none"/>
      <path d="M9.05 8.45 Q9.6 10.5 8.6 12.55 7.5 14.6 5.4 15.25 L4.0 15.45 Q6.35 13.0 7.45 7.25 8.85 7.75 9.05 8.45" fill="#fea2a8" fill-rule="evenodd" stroke="none"/>
      <path d="M-9.55 7.5 Q-8.2 6.6 -2.15 6.45 L-2.15 7.45 -7.65 7.95 -9.0 8.35 -9.55 7.5" fill="#ffffff" fill-rule="evenodd" stroke="none"/>
      <path d="M-9.5 15.4 L-8.9 14.65 Q-6.35 16.65 -4.35 15.7 L-4.1 16.15 Q-6.65 17.4 -9.5 15.4" fill="#f6cddd" fill-rule="evenodd" stroke="none"/>
      <path d="M-11.3 5.9 L-9.4 5.0 Q-7.15 4.15 -4.9 4.1 L-4.85 5.1 Q-7.0 5.15 -9.25 5.8 L-11.15 6.4 -11.3 5.9" fill="#f6cddd" fill-rule="evenodd" stroke="none"/>
      <path d="M4.1 15.9 Q6.5 16.1 8.1 15.0 L8.65 15.85 Q6.8 17.1 4.15 16.5 L4.1 15.9" fill="#f6cddd" fill-rule="evenodd" stroke="none"/>
      <path d="M-2.85 9.45 Q-2.85 11.1 -4.5 11.1 -6.15 11.1 -6.15 9.45 -6.15 7.8 -4.5 7.8 -2.85 7.8 -2.85 9.45" fill="#ffffff" fill-rule="evenodd" stroke="none"/>
      <path d="M-4.55 12.6 Q-4.55 13.55 -5.5 13.55 -6.45 13.55 -6.45 12.6 -6.45 11.7 -5.5 11.7 -4.55 11.7 -4.55 12.6" fill="#ffffff" fill-rule="evenodd" stroke="none"/>
      <path d="M1.05 7.25 L1.45 7.65 -1.9 11.6 -2.65 10.95 1.05 7.25" fill="#ffffff" fill-rule="evenodd" stroke="none"/>
      <path d="M-6.0 12.4 L-0.8 6.6 -0.05 7.25 -5.25 13.1 -6.0 12.4" fill="#ffffff" fill-rule="evenodd" stroke="none"/>
    </g>
  </defs>
</svg>
